assets/Crystal ball/Flat/crystal_ball_flat.svg

<svg width="32" height="32" viewBox="0 0 32 32" fill="none" xmlns="http://www.w3.org/2000/svg">
<path d="M16 27C22.6274 27 28 21.6274 28 15C28 8.37258 22.6274 3 16 3C9.37257 3 4 8.37258 4 15C4 21.6274 9.37257 27 16 27Z" fill="#533566"/>
<path d="M24 24H8L7.07853 28.1805C6.7458 29.0769 7.51208 30 8.59093 30H23.4125C24.4913 30 25.2475 29.0769 24.9249 28.1805L24 24Z" fill="#B4ACBC"/>
<path d="M14.205 6.26449C14.085 6.21411 13.995 6.11335 13.945 6.00252L13.565 5.10579C13.495 4.96474 13.295 4.96474 13.225 5.10579L12.845 6.00252C12.795 6.12343 12.705 6.21411 12.585 6.26449L12.105 6.48615C11.965 6.55668 11.965 6.75819 12.105 6.82871L12.585 7.05038C12.705 7.10076 12.795 7.20151 12.845 7.31235L13.225 8.20907C13.295 8.35013 13.495 8.35013 13.565 8.20907L13.945 7.31235C13.995 7.19144 14.085 7.10076 14.205 7.05038L14.685 6.82871C14.825 6.75819 14.825 6.55668 14.685 6.48615L14.205 6.26449Z" fill="#FCD53F"/>
<path d="M24.12 10.8035C23.96 10.733 23.83 10.5919 23.76 10.4307L23.22 9.15113C23.12 8.94962 22.83 8.94962 22.73 9.15113L22.19 10.4307C22.12 10.5919 21.99 10.733 21.83 10.8035L21.15 11.1159C20.95 11.2166 20.95 11.5088 21.15 11.6096L21.83 11.9219C21.99 11.9924 22.12 12.1335 22.19 12.2947L22.73 13.5743C22.83 13.7758 23.12 13.7758 23.22 13.5743L23.76 12.2947C23.83 12.1335 23.96 11.9924 24.12 11.9219L24.8 11.6096C25 11.5088 25 11.2166 24.8 11.1159L24.12 10.8035Z" fill="#FCD53F"/>
<path d="M12.5861 14.0303C12.7249 14.3822 12.9838 14.6657 13.3168 14.8221L14.6948 15.477C15.1017 15.6921 15.1017 16.3079 14.6948 16.523L13.3168 17.1779C12.9931 17.3343 12.7249 17.6178 12.5861 17.9697L11.4948 20.6774C11.2913 21.1075 10.7087 21.1075 10.5052 20.6774L9.41387 17.9697C9.27515 17.6178 9.01618 17.3343 8.68323 17.1779L7.3052 16.523C6.89827 16.3079 6.89827 15.6921 7.3052 15.477L8.68323 14.8221C9.00693 14.6657 9.27515 14.3822 9.41387 14.0303L10.5052 11.3226C10.7087 10.8925 11.2913 10.8925 11.4948 11.3226L12.5861 14.0303Z" fill="#FCD53F"/>
</svg>

<svg xmlns="http://www.w3.org/2000/svg" width="32" height="32" fill="none"><path fill="#533566" d="M16 27c6.627 0 12-5.373 12-12S22.627 3 16 3 4 8.373 4 15s5.373 12 12 12Z"/><path fill="#B4ACBC" d="M24 24H8l-.921 4.18c-.333.897.433 1.82 1.512 1.82h14.822c1.078 0 1.834-.923 1.512-1.82L24 24Z"/><path fill="#FCD53F" d="M14.205 6.264a.51.51 0 0 1-.26-.261l-.38-.897a.19.19 0 0 0-.34 0l-.38.897a.476.476 0 0 1-.26.261l-.48.222a.192.192 0 0 0 0 .343l.48.221c.12.05.21.152.26.262l.38.897a.19.19 0 0 0 .34 0l.38-.897c.05-.12.14-.211.26-.262l.48-.221a.192.192 0 0 0 0-.343l-.48-.222ZM24.12 10.803a.725.725 0 0 1-.36-.372l-.54-1.28a.274.274 0 0 0-.49 0l-.54 1.28a.725.725 0 0 1-.36.373l-.68.312c-.2.1-.2.393 0 .494l.68.312c.16.07.29.211.36.373l.54 1.28c.1.2.39.2.49 0l.54-1.28c.07-.162.2-.303.36-.373l.68-.312c.2-.101.2-.393 0-.494l-.68-.313ZM12.586 14.03c.139.352.398.636.73.792l1.379.655c.407.215.407.83 0 1.046l-1.378.655c-.324.156-.592.44-.73.792l-1.092 2.707a.54.54 0 0 1-.99 0L9.414 17.97a1.457 1.457 0 0 0-.73-.792l-1.379-.655c-.407-.215-.407-.83 0-1.046l1.378-.655c.324-.156.592-.44.73-.792l1.092-2.707a.54.54 0 0 1 .99 0l1.091 2.707Z"/></svg>
